public/promo/picpay.svg

<svg fill="none" height="33" viewBox="0 0 38 33" width="38" xmlns="http://www.w3.org/2000/svg"><path d="m33.5886 3.9h-3.9v3.9h3.9zm-21.9 1.9h-5.60002v4.9h5.20002c3.3 0 5.2 1.6 5.2 4.6s-1.9 4.7-5.2 4.7h-5.20002v-9.2h-5.800006v21.5h5.800006v-7.4h5.50002c6.7 0 10.6-3.6 10.6-9.8 0-5.8-3.8-9.3-10.5-9.3zm25.8-5.8h-11.7v11.7h11.7zm-1.9 9.7h-7.8v-7.8h7.8z" fill="#757575"/></svg>

<svg width="38" height="33" viewBox="0 0 38 33" fill="none" xmlns="http://www.w3.org/2000/svg">
<path d="M33.5886 3.9H29.6886V7.8H33.5886V3.9ZM11.6886 5.8H6.08858V10.7H11.2886C14.5886 10.7 16.4886 12.3 16.4886 15.3C16.4886 18.3 14.5886 20 11.2886 20H6.08858V10.8H0.288574V32.3H6.08858V24.9H11.5886C18.2886 24.9 22.1886 21.3 22.1886 15.1C22.1886 9.3 18.3886 5.8 11.6886 5.8ZM37.4886 0H25.7886V11.7H37.4886V0ZM35.5886 9.7H27.7886V1.9H35.5886V9.7Z" fill="#757575"/>
</svg>
